X:1
T:the Top of Balvenie
T:the Top of Balvenie
T:William Marshall
C:William Marshall
%%score { ( 1 2 ) 3 }
L:1/8
M:4/4
K:G
V:1 treble 
V:2 treble 
V:3 bass 
V:1
 g | G<G (Bc/d/) Gc Bc/d/ | DAFA cedB | G<G (Bc/d/) Gc (Bc/d/) | eg (f/g/a/f/) gGB :| g | %6
 dgBg dgbg | dgBg aAce |1 dgBg dgbg | (3efg (3fga gGBg :|2 G<G (Bc/d/) Gc (Bc/d/) | %11
 eg f/g/a/f/ gGB |] %12
V:2
 x | x8 | x8 | x8 | c2 c2 x3 :| x | x8 | x8 |1 x8 | x8 :|2 x8 | x7 |] %12
V:3
 z | [G,,G,]2 [G,,G,]2 [G,,G,]2 [G,,G,]2 | [F,,F,]2 [D,,D,]2 [F,,F,]2 [G,,G,]2 | %3
 [G,,G,]2 [G,,G,]2 [G,,G,]2 [G,,G,]2 | [C,,C,]2 [D,,D,]2 G,2 G, :| z | %6
 [G,B,D]2 [G,B,D]2 [G,B,D]2 [G,B,D]2 | [G,B,D]2 [G,B,D]2 [F,CD]2 [F,CD]2 |1 %8
 [G,B,D]2 [G,B,D]2 [G,B,D]2 [G,B,D]2 | [G,CE]2 [A,CD]2 [G,B,D]2 [G,B,D]2 :|2 %10
 [G,,G,]2 [G,,G,]2 [G,,G,]2 [G,,G,]2 | [C,G,]2 [D,A,C]2 [G,B,]2 [G,B,D] |] %12

